X: 27
T:Jamie Allen
R:polka
Z:id:hn-polka-26
M:4/4
L:1/4
Q:300
K:G % transposed from D
"G"(G/4A/4B/4)G G G/2A/2|B2 A A/2B/2|"Am"c A AB|"D"cd/c/ BA|
"C"Gg ge| "G"d2 B B/2c/2|"D" d d  c/2B/2 A|"G" G2 G>A:|
|"G"Gg gf|ed cB|"Am"Aa ag|"D" f d e f|"C"g>a g e|
"G"d2 B B/2c/2| "D"d d c/2B/2|"G"G4:|

